source/img/logotypes/logo-mastercard.svg

<svg width="96" height="64" viewBox="0 0 96 64" fill="none" xmlns="http://www.w3.org/2000/svg">
<rect opacity="0.05" width="96" height="64" rx="8" fill="#E0E0E0"/>
<path d="M41.4935 20.2275H54.4592V43.9539H41.4935V20.2275Z" fill="#BDBDBD"/>
<path d="M42.3167 32.091C42.3167 27.2703 44.5393 22.9945 47.9556 20.2277C45.4449 18.2156 42.2756 17 38.8181 17C30.6268 17 24 23.7489 24 32.091C24 40.4328 30.6268 47.1819 38.8179 47.1819C42.2754 47.1819 45.4447 45.9663 47.9556 43.954C44.5393 41.2293 42.3167 36.9116 42.3167 32.091Z" fill="#828282"/>
<path d="M71.9524 32.091C71.9524 40.4328 65.3256 47.1819 57.1345 47.1819C53.677 47.1819 50.5076 45.9663 47.9968 43.954C51.4543 41.1875 53.6359 36.9116 53.6359 32.091C53.6359 27.2703 51.4131 22.9945 47.9968 20.2277C50.5075 18.2156 53.677 17 57.1345 17C65.3256 17 71.9526 23.7909 71.9526 32.091H71.9524Z" fill="#E0E0E0"/>
</svg>

<svg width="96" height="64" fill="none" xmlns="http://www.w3.org/2000/svg"><rect opacity=".05" width="96" height="64" rx="8" fill="#E0E0E0"/><path d="M41.493 20.227H54.46v23.727H41.493V20.227z" fill="#BDBDBD"/><path d="M42.317 32.091c0-4.82 2.222-9.097 5.639-11.863C45.445 18.216 42.276 17 38.818 17 30.627 17 24 23.749 24 32.091c0 8.342 6.627 15.09 14.818 15.09 3.457 0 6.627-1.215 9.138-3.227-3.417-2.725-5.64-7.042-5.64-11.863z" fill="#828282"/><path d="M71.952 32.091c0 8.342-6.626 15.09-14.817 15.09-3.458 0-6.627-1.215-9.138-3.227 3.457-2.767 5.639-7.042 5.639-11.863 0-4.82-2.223-9.097-5.64-11.863C50.508 18.216 53.678 17 57.136 17c8.19 0 14.818 6.79 14.818 15.091z" fill="#E0E0E0"/></svg>
